src/pos-icons/trending-up.svg

<svg height="24" viewBox="0 0 24 24" width="24" xmlns="http://www.w3.org/2000/svg"><path d="m16 6 2.29 2.29-4.88 4.88-4-4-7.41 7.42 1.41 1.41 6-6 4 4 6.3-6.29 2.29 2.29v-6z"/></svg>

<?xml version="1.0" encoding="UTF-8"?><!DOCTYPE svg PUBLIC "-//W3C//DTD SVG 1.1//EN" "http://www.w3.org/Graphics/SVG/1.1/DTD/svg11.dtd"><svg xmlns="http://www.w3.org/2000/svg" xmlns:xlink="http://www.w3.org/1999/xlink" version="1.1" id="mdi-trending-up" width="24" height="24" viewBox="0 0 24 24"><path d="M16,6L18.29,8.29L13.41,13.17L9.41,9.17L2,16.59L3.41,18L9.41,12L13.41,16L19.71,9.71L22,12V6H16Z" /></svg>
